X:1
T:115 - Breve com Jesus
T:Letra: Sarah Poulton Kalley (1825-1907)
T:Música: Ersnt Gebhardt (1832-1899)
M:6/8
L:1/8
Q:1/4=100
K:Ab
V:1
E | "Ab"E-=DE c-BA | "Db"G3 F2F | "Bbm"F-=EF d-cB | "Ab/Eb"A3-"Eb"G2B | "Abm"_c-BA c-BA | "Eb"B2-G E2B | "Abm"_c-BA c-BA | ("Eb"e3 E2)E | "Ab"c-dc "Eb7"B-cB | ("Ab"A3 E2)E | "Ab"c-dc ("Eb7"BF)G | "Ab"A3 z2 |]
w: 1.~Em bre_ve,em bre_veha-ve-mos De ver_ o Sal_va-dor;_ Eem ca_sa can_ta-re_mos Je-sus_ e seu_ a-mor!_ Je-sus_ e seu_ a-mor!_ Je-sus_ e seu_ a-mor!
W: 
W: 
W: Em breve, em breve havemos
W: De ver o Salvador;
W: E em casa cantaremos
W: Jesus e seu amor! (3 vezes)
W:         
W: 				         
W:           





